X: 1
T: \vSrote\vs   [A]
T: Shrotesh
O: Croatia
R:
Z: 2013 John Chambers <jc:trillian.mit.edu>
M: C
L: 1/8
P: Play A part slowly, B part faster.
K: A
"^Intro".e.e/.e/ .e.e .ez .ez !A!|:\
"A"ec "E"dB "A"cA AA | "E"BG GG "A"cA AA |\
"A"ec "E"dB "A"cA AA | "E"ee e/f/g aa az :|
!B!|:\
"D"ag f2 "A"ed c2 | "E"BB/c/ dB "A"AB c2 |\
"D"ag f2 "A"ed c2 | "E"e/e/e fg "A"aa az :|

%%sep 1 1 500


